!!!OTL: WIR ZOGEN IN DAS FELD
!!!ARE: Europa, Mitteleuropa, Deutschland
!!!SCT: E1286
!!!YEM: Copyright 1995, estate of Helmut Schaffrath.
**kern
*ICvox
*Ivox
*M4/4
*k[b-]
*F:
{4f
=1
4f
4cc
4cc
4a
=2
2f
4r}
{4a
=3
4a
4a
4a
4a
=4
2a
4r}
{4a
=5
4a
4a
4a
4a
=6
4a
4a
2a}
=7
{2a
4g
4f
=8
1g}
=9
{4.f
8g
4a
4b-
=10
2cc
4dd}
{4dd
=11
4cc
4a
4b-
4g
=12
2f
2r}
=13
{4.f
8g
4a
4b-
=14
2cc
4dd}
{4dd
=15
4cc
4a
4b-
4g
=16
2f
4r}
==
!!!AGN: Staende -, Soldaten -, Kriegs - Lied, Landsknechts - Marsch
!!!ONB: ESAC (Essen Associative Code) Database: ERK3
!!!AMT: simple quadruple
!!!AIN: vox
!!!EED: Helmut Schaffrath
!!!EEV: 1.0
*-
